T: Let Erin Remember
M: 2/4
L: 1/8
K: Gmaj
D2|G3A|B3c|d4|c2Bc|d3e|B2G2|A4|G2 Bd|
g4|f2ed|e2dB|d2BA|G2AB|A2GB|A4|G2|
